public/assets/edge.svg

<svg width="44" height="43" viewBox="0 0 44 43" fill="none" xmlns="http://www.w3.org/2000/svg">
<path d="M39.0887 31.6005C38.5279 31.8931 37.942 32.1547 37.3333 32.3823C35.5032 33.0665 33.4821 33.4543 31.3503 33.4543C23.4639 33.4543 16.5939 28.0555 16.5939 21.1279C16.5939 19.1799 17.7264 17.4915 19.3313 16.6021C12.1992 16.8996 10.3657 24.2975 10.3657 28.6313C10.3657 40.8831 21.7133 42.1265 24.1584 42.1265C25.4761 42.1265 27.465 41.7445 28.6633 41.3704C28.7363 41.3463 28.809 41.3219 28.8817 41.2969C33.508 39.7092 37.4126 36.5856 39.9792 32.5368C40.3473 31.956 39.7 31.2815 39.0887 31.6005Z" fill="url(#paint0_linear_76:234)"/>
<path opacity="0.35" d="M39.0887 31.6005C38.5279 31.8931 37.942 32.1547 37.3333 32.3823C35.5032 33.0665 33.4821 33.4543 31.3503 33.4543C23.4639 33.4543 16.5939 28.0555 16.5939 21.1279C16.5939 19.1799 17.7264 17.4915 19.3313 16.6021C12.1992 16.8996 10.3657 24.2975 10.3657 28.6313C10.3657 40.8831 21.7133 42.1265 24.1584 42.1265C25.4761 42.1265 27.465 41.7445 28.6633 41.3704C28.7363 41.3463 28.809 41.3219 28.8817 41.2969C33.508 39.7092 37.4126 36.5856 39.9792 32.5368C40.3473 31.956 39.7 31.2815 39.0887 31.6005Z" fill="url(#paint1_radial_76:234)"/>
<path d="M18.2001 40.0393C16.7178 39.1249 15.431 37.9191 14.4111 36.4941C12.8328 34.289 11.8893 31.5765 11.8893 28.6315C11.8893 24.2976 13.9171 20.459 17.0429 18.0269C17.7528 17.4746 18.6618 16.9175 19.3315 16.602C19.8516 16.357 20.741 15.9158 21.9223 15.9324C23.8808 15.9601 25.3606 16.9537 26.2029 18.0823C26.8501 18.9494 27.2492 20.0176 27.2625 21.1773C27.263 21.1424 31.3396 7.97462 13.9217 7.97462C6.60658 7.97462 0.58252 14.8857 0.58252 20.9469C0.58252 24.7917 1.47903 27.8613 2.60151 30.2402C5.10148 35.5391 9.73745 39.6404 15.4085 41.4474C17.4622 42.1018 19.65 42.4585 21.9223 42.4585C24.2789 42.4585 26.5438 42.0728 28.6635 41.3709C27.4651 41.745 26.1947 41.9497 24.877 41.9497C22.432 41.9497 20.1531 41.244 18.2001 40.0393Z" fill="url(#paint2_linear_76:234)"/>
<path opacity="0.41" d="M18.2001 40.0393C16.7178 39.1249 15.431 37.9191 14.4111 36.4941C12.8328 34.289 11.8893 31.5765 11.8893 28.6315C11.8893 24.2976 13.9171 20.459 17.0429 18.0269C17.7528 17.4746 18.6618 16.9175 19.3315 16.602C19.8516 16.357 20.741 15.9158 21.9223 15.9324C23.8808 15.9601 25.3606 16.9537 26.2029 18.0823C26.8501 18.9494 27.2492 20.0176 27.2625 21.1773C27.263 21.1424 31.3396 7.97462 13.9217 7.97462C6.60658 7.97462 0.58252 14.8857 0.58252 20.9469C0.58252 24.7917 1.47903 27.8613 2.60151 30.2402C5.10148 35.5391 9.73745 39.6404 15.4085 41.4474C17.4622 42.1018 19.65 42.4585 21.9223 42.4585C24.2789 42.4585 26.5438 42.0728 28.6635 41.3709C27.4651 41.745 26.1947 41.9497 24.877 41.9497C22.432 41.9497 20.1531 41.244 18.2001 40.0393Z" fill="url(#paint3_radial_76:234)"/>
<path d="M25.9662 24.6883C25.8311 24.8623 25.4156 25.1025 25.4156 25.6276C25.4156 26.0596 25.6989 26.4763 26.2025 26.8261C28.5991 28.4906 33.1164 28.2663 33.1285 28.2662C34.9934 28.2598 36.6711 27.7494 38.1738 26.8752C38.8574 26.4773 39.4902 26.0049 40.0606 25.4654C42.0185 23.614 43.2121 21.005 43.2452 18.1061C43.2877 14.3884 41.9186 11.9169 41.3559 10.8225C37.8239 3.95324 30.1999 0 21.9103 0C10.2252 0 0.739569 9.3451 0.582764 20.9305C0.661979 14.8698 6.71473 9.97576 13.9097 9.97576C14.4931 9.97576 17.8198 10.0324 20.9102 11.6465C23.6325 13.0683 25.0597 14.7863 26.0517 16.4906C27.0816 18.2602 27.2649 20.4953 27.2649 21.3864C27.2649 22.2775 26.8134 23.5969 25.9662 24.6883Z" fill="url(#paint4_radial_76:234)"/>
<path d="M25.9662 24.6883C25.8311 24.8623 25.4156 25.1025 25.4156 25.6276C25.4156 26.0596 25.6989 26.4763 26.2025 26.8261C28.5991 28.4906 33.1164 28.2663 33.1285 28.2662C34.9934 28.2598 36.6711 27.7494 38.1738 26.8752C38.8574 26.4773 39.4902 26.0049 40.0606 25.4654C42.0185 23.614 43.2121 21.005 43.2452 18.1061C43.2877 14.3884 41.9186 11.9169 41.3559 10.8225C37.8239 3.95324 30.1999 0 21.9103 0C10.2252 0 0.739569 9.3451 0.582764 20.9305C0.661979 14.8698 6.71473 9.97576 13.9097 9.97576C14.4931 9.97576 17.8198 10.0324 20.9102 11.6465C23.6325 13.0683 25.0597 14.7863 26.0517 16.4906C27.0816 18.2602 27.2649 20.4953 27.2649 21.3864C27.2649 22.2775 26.8134 23.5969 25.9662 24.6883Z" fill="url(#paint5_radial_76:234)"/>
<defs>
<linearGradient id="paint0_linear_76:234" x1="10.3657" y1="29.3643" x2="40.0866" y2="29.3643" gradientUnits="userSpaceOnUse">
<stop stop-color="#0C59A4"/>
<stop offset="1" stop-color="#114A8B"/>
</linearGradient>
<radialGradient id="paint1_radial_76:234" cx="0" cy="0" r="1" gradientUnits="userSpaceOnUse" gradientTransform="translate(26.7817 29.5853) scale(15.8965 15.0454)">
<stop offset="0.71659" stop-opacity="0"/>
<stop offset="0.9459" stop-opacity="0.53"/>
<stop offset="1"/>
</radialGradient>
<linearGradient id="paint2_linear_76:234" x1="26.0351" y1="16.5329" x2="7.56755" y2="36.7458" gradientUnits="userSpaceOnUse">
<stop stop-color="#1B9DE2"/>
<stop offset="0.16164" stop-color="#1595DF"/>
<stop offset="0.66749" stop-color="#0680D7"/>
<stop offset="1" stop-color="#0078D4"/>
</linearGradient>
<radialGradient id="paint3_radial_76:234" cx="0" cy="0" r="1" gradientUnits="userSpaceOnUse" gradientTransform="translate(12.466 32.9491) rotate(-81.4233) scale(23.7587 19.2336)">
<stop offset="0.76293" stop-opacity="0"/>
<stop offset="0.9459" stop-opacity="0.5"/>
<stop offset="1"/>
</radialGradient>
<radialGradient id="paint4_radial_76:234" cx="0" cy="0" r="1" gradientUnits="userSpaceOnUse" gradientTransform="translate(4.78724 7.76276) rotate(92.1394) scale(33.5739 71.8531)">
<stop stop-color="#35C1F1"/>
<stop offset="0.11079" stop-color="#34C1ED"/>
<stop offset="0.23164" stop-color="#2FC2DF"/>
<stop offset="0.31446" stop-color="#2BC3D2"/>
<stop offset="0.67338" stop-color="#36C752"/>
</radialGradient>
<radialGradient id="paint5_radial_76:234" cx="0" cy="0" r="1" gradientUnits="userSpaceOnUse" gradientTransform="translate(40.9912 12.8659) rotate(73.5996) scale(16.1499 13.2394)">
<stop stop-color="#66EB6E"/>
<stop offset="1" stop-color="#66EB6E" stop-opacity="0"/>
</radialGradient>
</defs>
</svg>

<svg width="44" height="43" fill="none" xmlns="http://www.w3.org/2000/svg"><path d="M39.089 31.6c-.561.293-1.147.555-1.756.782a17.075 17.075 0 0 1-5.983 1.072c-7.886 0-14.756-5.399-14.756-12.326 0-1.948 1.132-3.637 2.737-4.526-7.132.298-8.965 7.695-8.965 12.03 0 12.251 11.347 13.494 13.792 13.494 1.318 0 3.307-.381 4.505-.756l.219-.073a21.372 21.372 0 0 0 11.097-8.76c.368-.581-.279-1.255-.89-.936Z" fill="url(#a)"/><path opacity=".35" d="M39.089 31.6c-.561.293-1.147.555-1.756.782a17.075 17.075 0 0 1-5.983 1.072c-7.886 0-14.756-5.399-14.756-12.326 0-1.948 1.132-3.637 2.737-4.526-7.132.298-8.965 7.695-8.965 12.03 0 12.251 11.347 13.494 13.792 13.494 1.318 0 3.307-.381 4.505-.756l.219-.073a21.372 21.372 0 0 0 11.097-8.76c.368-.581-.279-1.255-.89-.936Z" fill="url(#b)"/><path d="M18.2 40.04a13.16 13.16 0 0 1-3.789-3.546 13.464 13.464 0 0 1-2.522-7.863c0-4.333 2.028-8.172 5.154-10.604.71-.552 1.619-1.11 2.288-1.425.52-.245 1.41-.686 2.591-.67a5.401 5.401 0 0 1 4.28 2.15 5.265 5.265 0 0 1 1.06 3.095c.001-.035 4.078-13.202-13.34-13.202-7.315 0-13.34 6.91-13.34 12.972 0 3.845.897 6.914 2.02 9.293a21.354 21.354 0 0 0 19.32 12.219c2.357 0 4.622-.386 6.741-1.088a12.682 12.682 0 0 1-3.786.579c-2.445 0-4.724-.706-6.677-1.91Z" fill="url(#c)"/><path opacity=".41" d="M18.2 40.04a13.16 13.16 0 0 1-3.789-3.546 13.464 13.464 0 0 1-2.522-7.863c0-4.333 2.028-8.172 5.154-10.604.71-.552 1.619-1.11 2.288-1.425.52-.245 1.41-.686 2.591-.67a5.401 5.401 0 0 1 4.28 2.15 5.265 5.265 0 0 1 1.06 3.095c.001-.035 4.078-13.202-13.34-13.202-7.315 0-13.34 6.91-13.34 12.972 0 3.845.897 6.914 2.02 9.293a21.354 21.354 0 0 0 19.32 12.219c2.357 0 4.622-.386 6.741-1.088a12.682 12.682 0 0 1-3.786.579c-2.445 0-4.724-.706-6.677-1.91Z" fill="url(#d)"/><path d="M25.966 24.688c-.135.174-.55.415-.55.94 0 .432.283.848.787 1.198 2.396 1.665 6.913 1.44 6.926 1.44 1.864-.006 3.542-.517 5.045-1.39a10.24 10.24 0 0 0 1.887-1.41c1.958-1.852 3.151-4.461 3.184-7.36.043-3.718-1.326-6.19-1.89-7.284C37.825 3.954 30.2 0 21.91 0 10.225 0 .74 9.345.583 20.93.662 14.87 6.715 9.976 13.91 9.976c.583 0 3.91.056 7 1.67 2.723 1.422 4.15 3.14 5.142 4.845 1.03 1.77 1.213 4.004 1.213 4.895 0 .892-.452 2.21-1.299 3.302Z" fill="url(#e)"/><path d="M25.966 24.688c-.135.174-.55.415-.55.94 0 .432.283.848.787 1.198 2.396 1.665 6.913 1.44 6.926 1.44 1.864-.006 3.542-.517 5.045-1.39a10.24 10.24 0 0 0 1.887-1.41c1.958-1.852 3.151-4.461 3.184-7.36.043-3.718-1.326-6.19-1.89-7.284C37.825 3.954 30.2 0 21.91 0 10.225 0 .74 9.345.583 20.93.662 14.87 6.715 9.976 13.91 9.976c.583 0 3.91.056 7 1.67 2.723 1.422 4.15 3.14 5.142 4.845 1.03 1.77 1.213 4.004 1.213 4.895 0 .892-.452 2.21-1.299 3.302Z" fill="url(#f)"/><defs><radialGradient id="b" cx="0" cy="0" r="1" gradientUnits="userSpaceOnUse" gradientTransform="matrix(15.8965 0 0 15.0454 26.782 29.585)"><stop offset=".717" stop-opacity="0"/><stop offset=".946" stop-opacity=".53"/><stop offset="1"/></radialGradient><radialGradient id="d" cx="0" cy="0" r="1" gradientUnits="userSpaceOnUse" gradientTransform="rotate(-81.423 25.379 9.231) scale(23.7587 19.2336)"><stop offset=".763" stop-opacity="0"/><stop offset=".946" stop-opacity=".5"/><stop offset="1"/></radialGradient><radialGradient id="e" cx="0" cy="0" r="1" gradientUnits="userSpaceOnUse" gradientTransform="matrix(-1.25334 33.5505 -71.80302 -2.68234 4.787 7.763)"><stop stop-color="#35C1F1"/><stop offset=".111" stop-color="#34C1ED"/><stop offset=".232" stop-color="#2FC2DF"/><stop offset=".314" stop-color="#2BC3D2"/><stop offset=".673" stop-color="#36C752"/></radialGradient><radialGradient id="f" cx="0" cy="0" r="1" gradientUnits="userSpaceOnUse" gradientTransform="matrix(4.5599 15.4928 -12.70072 3.73812 40.991 12.866)"><stop stop-color="#66EB6E"/><stop offset="1" stop-color="#66EB6E" stop-opacity="0"/></radialGradient><linearGradient id="a" x1="10.366" y1="29.364" x2="40.087" y2="29.364" gradientUnits="userSpaceOnUse"><stop stop-color="#0C59A4"/><stop offset="1" stop-color="#114A8B"/></linearGradient><linearGradient id="c" x1="26.035" y1="16.533" x2="7.568" y2="36.746" gradientUnits="userSpaceOnUse"><stop stop-color="#1B9DE2"/><stop offset=".162" stop-color="#1595DF"/><stop offset=".667" stop-color="#0680D7"/><stop offset="1" stop-color="#0078D4"/></linearGradient></defs></svg>
